assets/images/shouji.svg

<svg xmlns="http://www.w3.org/2000/svg" preserveAspectRatio="xMidYMid" width="116" height="116" viewBox="0 0 116 116"><defs><style>.cls-1,.cls-2{fill:#fff;fill-rule:evenodd}.cls-1{stroke:#fff;stroke-linejoin:round;stroke-width:3px;opacity:.9;fill-opacity:.2}</style></defs><path d="M58.333 3.719c30.007 0 54.333 24.319 54.333 54.318s-24.326 54.318-54.333 54.318C28.326 112.355 4 88.036 4 58.037S28.326 3.719 58.333 3.719z" class="cls-1"/><path d="M77 86H39.938a2 2 0 0 1-2-2V29a2 2 0 0 1 2-2H77a2 2 0 0 1 2 2v55a2 2 0 0 1-2 2zm-18.625-3a3.383 3.383 0 0 0 3.375-3.391 3.383 3.383 0 0 0-3.375-3.39A3.383 3.383 0 0 0 55 79.609 3.383 3.383 0 0 0 58.375 83zm3.719-51.328a.703.703 0 0 0-.703-.703h-7.25a.703.703 0 0 0-.703.703v.625c0 .388.314.703.703.703h7.25a.703.703 0 0 0 .703-.703v-.625zM74.854 37H42.031v37.031h32.823V37z" class="cls-2"/></svg>

<svg xmlns="http://www.w3.org/2000/svg" xmlns:xlink="http://www.w3.org/1999/xlink" preserveAspectRatio="xMidYMid" width="116" height="116" viewBox="0 0 116 116">
  <defs>
    <style>
      .cls-1, .cls-2 {
        fill: #fff;
        fill-rule: evenodd;
      }

      .cls-1 {
        stroke: #fff;
        stroke-linejoin: round;
        stroke-width: 3px;
        opacity: 0.9;
        fill-opacity: 0.2;
      }
    </style>
  </defs>
  <g>
    <path d="M58.333,3.719 C88.340,3.719 112.666,28.038 112.666,58.037 C112.666,88.036 88.340,112.355 58.333,112.355 C28.326,112.355 4.000,88.036 4.000,58.037 C4.000,28.038 28.326,3.719 58.333,3.719 Z" class="cls-1"/>
    <path d="M77.000,86.000 L39.938,86.000 C38.833,86.000 37.938,85.105 37.938,84.000 L37.938,29.000 C37.938,27.895 38.833,27.000 39.938,27.000 L77.000,27.000 C78.105,27.000 79.000,27.895 79.000,29.000 L79.000,84.000 C79.000,85.105 78.105,86.000 77.000,86.000 ZM58.375,83.000 C60.239,83.000 61.750,81.482 61.750,79.609 C61.750,77.737 60.239,76.219 58.375,76.219 C56.511,76.219 55.000,77.737 55.000,79.609 C55.000,81.482 56.511,83.000 58.375,83.000 ZM62.094,31.672 C62.094,31.284 61.779,30.969 61.391,30.969 L54.141,30.969 C53.752,30.969 53.438,31.284 53.438,31.672 L53.438,32.297 C53.438,32.685 53.752,33.000 54.141,33.000 L61.391,33.000 C61.779,33.000 62.094,32.685 62.094,32.297 L62.094,31.672 ZM74.854,37.000 L42.031,37.000 L42.031,74.031 L74.854,74.031 L74.854,37.000 Z" class="cls-2"/>
  </g>
</svg>
